X: 1
T: The Earl of Elgin's Strathspey
M:C|
L:1/8
C: Miss Magdelina Stirling's Collection
Z: source from Highland Music Trust, chords by Gary Whaley
K:D
A,[|:"D"D2 DA G/F/E/D/"C"E=C|"D"D2 DA A/G/F/E/D/ dA|"G"Bd"D"Ad Fd"C"E=C|"D"D2 DA "A"G/F/E/D/ "D"D2 :|]
[|"D"Ad de/f/ g/f/e/d/ "C"e=c|"D"Ad de/f/ g/f/e/d/ ad|g/f/e/d/ ad g>f"D"e=c|"D"Ad de/f/ "A"g/f/e/d/ "D"a2 |
|"D"Ad de/f/ g/f/e/d/ "C"e=c|"D"Adde f>da<d|f>da>d g/f/"C"e=c|"D"Ad dg/f/ "A"ef"D"d>f |]